X:4221
T:Farandol Nicoise
L:1/8
M:6/4
Q:180
K:G
|:B3B3|d3dcB|ABc def|gfe ded|B3B3|d3dcB|ABc def|1g6:|2(g3g2)d|
|:dBd dBd|e2ee3|f2f fef|gfed2d|dBd dBd|e2ee3|f2f fef|(g3g2)d:|

